X:1
T:Devil in the Kitchen, The
T:Prince of Wales Jig, The
M:4/4
L:1/8
C:W. Ross, H.M. Piper
R:Strathspey
K:A mix
a |\
"A"e>A A/A/A e>A f/e/d | "A"e>A A/A/A "G"g2 f<a |\
"A"e>A A/A/A e>A f/e/d | "G"B>G d/c/B g2 f<a |
"A"e>A A/A/A e>A f/e/d | "A"e>A A/A/A "G"g2 f<a |\
"A"e>A A/A/A e>A f/e/d | "G"B>G d/c/B g2 :|
|: f<g |\
"A"a>A A/A/A e>A A/A/A | "A"a>A A/A/A "G"g2f<g |\
"A"a>A A/A/A A/A/A e>A | "G"B>G d/c/B g2 f<g |
"A"a>A A/A/A e>A A/A/A | "A"a>A A/A/A "G"g2f<g |\
"D"a/g/f g/f/e f/af/ e>c | "G"B>cd>e g2 |]
